packages/design-system/site/assets/images/layout/img-master-detail-1.svg

<?xml version="1.0" encoding="UTF-8" standalone="no"?>
<svg width="241px" height="231px" viewBox="0 0 241 231" version="1.1" xmlns="http://www.w3.org/2000/svg" xmlns:xlink="http://www.w3.org/1999/xlink" xmlns:sketch="http://www.bohemiancoding.com/sketch/ns">
    <!-- Generator: Sketch 3.3.3 (12081) - http://www.bohemiancoding.com/sketch -->
    <title>record copy 7</title>
    <desc>Created with Sketch.</desc>
    <defs></defs>
    <g id="Page-1" stroke="none" stroke-width="1" fill="none" fill-rule="evenodd" sketch:type="MSPage">
        <g id="layouts" sketch:type="MSArtboardGroup" transform="translate(-839.000000, -3293.000000)">
            <g id="record-copy-7" sketch:type="MSLayerGroup" transform="translate(839.000000, 3293.000000)">
                <rect id="bkgd" stroke="#E1E6EF" fill="#FFFFFF" sketch:type="MSShapeGroup" x="0" y="9.77379984" width="241" height="220.490531"></rect>
                <g id="Group-Copy-16" transform="translate(18.000000, 40.000000)" fill="#E1E6EF" sketch:type="MSShapeGroup">
                    <rect id="Rectangle-232-Copy-14" x="0.107970027" y="0.981948229" width="57.2250744" height="1.08106267" rx="4"></rect>
                    <rect id="Rectangle-232-Copy-15" x="0.107970027" y="6.02690736" width="21.89203" height="1.08106267" rx="4"></rect>
                    <rect id="Rectangle-232-Copy-16" x="0.107970027" y="8.90974114" width="46.6441205" height="1.08106267" rx="4"></rect>
                    <rect id="Rectangle-232-Copy-17" x="0.107970027" y="11.7925749" width="51.5692761" height="1.08106267" rx="4"></rect>
                </g>
                <g id="Group-Copy-17" transform="translate(18.000000, 64.000000)" fill="#E1E6EF" sketch:type="MSShapeGroup">
                    <rect id="Rectangle-232-Copy-14" x="0.107970027" y="0.981948229" width="57.2250744" height="1.08106267" rx="4"></rect>
                    <rect id="Rectangle-232-Copy-15" x="0.107970027" y="6.02690736" width="21.89203" height="1.08106267" rx="4"></rect>
                    <rect id="Rectangle-232-Copy-16" x="0.107970027" y="8.90974114" width="46.6441205" height="1.08106267" rx="4"></rect>
                    <rect id="Rectangle-232-Copy-17" x="0.107970027" y="11.7925749" width="51.5692761" height="1.08106267" rx="4"></rect>
                </g>
                <g id="Group-Copy-18" transform="translate(18.000000, 88.000000)" fill="#E1E6EF" sketch:type="MSShapeGroup">
                    <rect id="Rectangle-232-Copy-14" x="0.107970027" y="0.981948229" width="57.2250744" height="1.08106267" rx="4"></rect>
                    <rect id="Rectangle-232-Copy-15" x="0.107970027" y="6.02690736" width="21.89203" height="1.08106267" rx="4"></rect>
                    <rect id="Rectangle-232-Copy-16" x="0.107970027" y="8.90974114" width="46.6441205" height="1.08106267" rx="4"></rect>
                    <rect id="Rectangle-232-Copy-17" x="0.107970027" y="11.7925749" width="51.5692761" height="1.08106267" rx="4"></rect>
                </g>
                <g id="Group-Copy-19" transform="translate(18.000000, 112.000000)" fill="#E1E6EF" sketch:type="MSShapeGroup">
                    <rect id="Rectangle-232-Copy-14" x="0.107970027" y="0.981948229" width="57.2250744" height="1.08106267" rx="4"></rect>
                    <rect id="Rectangle-232-Copy-15" x="0.107970027" y="6.02690736" width="21.89203" height="1.08106267" rx="4"></rect>
                    <rect id="Rectangle-232-Copy-16" x="0.107970027" y="8.90974114" width="46.6441205" height="1.08106267" rx="4"></rect>
                    <rect id="Rectangle-232-Copy-17" x="0.107970027" y="11.7925749" width="51.5692761" height="1.08106267" rx="4"></rect>
                </g>
                <g id="Group-Copy-20" transform="translate(18.000000, 136.000000)" fill="#E1E6EF" sketch:type="MSShapeGroup">
                    <rect id="Rectangle-232-Copy-14" x="0.107970027" y="0.981948229" width="57.2250744" height="1.08106267" rx="4"></rect>
                    <rect id="Rectangle-232-Copy-15" x="0.107970027" y="6.02690736" width="21.89203" height="1.08106267" rx="4"></rect>
                    <rect id="Rectangle-232-Copy-16" x="0.107970027" y="8.90974114" width="46.6441205" height="1.08106267" rx="4"></rect>
                    <rect id="Rectangle-232-Copy-17" x="0.107970027" y="11.7925749" width="51.5692761" height="1.08106267" rx="4"></rect>
                </g>
                <g id="Group-Copy-21" transform="translate(18.000000, 160.000000)" fill="#E1E6EF" sketch:type="MSShapeGroup">
                    <rect id="Rectangle-232-Copy-14" x="0.107970027" y="0.981948229" width="57.2250744" height="1.08106267" rx="4"></rect>
                    <rect id="Rectangle-232-Copy-15" x="0.107970027" y="6.02690736" width="21.89203" height="1.08106267" rx="4"></rect>
                    <rect id="Rectangle-232-Copy-16" x="0.107970027" y="8.90974114" width="46.6441205" height="1.08106267" rx="4"></rect>
                    <rect id="Rectangle-232-Copy-17" x="0.107970027" y="11.7925749" width="51.5692761" height="1.08106267" rx="4"></rect>
                </g>
                <rect id="Rectangle-553" stroke="#E0E5EE" fill="#F7F9FB" sketch:type="MSShapeGroup" x="10.3180428" y="10.2993631" width="230.681957" height="25.7006369"></rect>
                <g id="Component---Top-Bar-Copy-12" sketch:type="MSShapeGroup">
                    <rect id="Background" stroke="#E1E6EF" fill="#FFFFFF" x="0" y="0" width="241" height="11.0895037"></rect>
                    <path d="M17.4249624,3.2540634 C17.724487,2.94258665 18.1414386,2.74932182 18.6026298,2.74932182 C19.2156048,2.74932182 19.7505047,3.0905399 20.0352587,3.59716498 C20.2828709,3.48673819 20.5568077,3.42528234 20.8450477,3.42528234 C21.9507134,3.42528234 22.8470948,4.32794426 22.8470948,5.44146827 C22.8470948,6.55501022 21.9507134,7.45765421 20.8450477,7.45765421 C20.7100469,7.45765421 20.5781727,7.4441289 20.4506471,7.41844157 C20.1998903,7.86499204 19.7218262,8.16672842 19.1732879,8.16672842 C18.9436806,8.16672842 18.7264359,8.11382903 18.5330001,8.01961825 C18.2787933,8.61670505 17.6863029,9.03534387 16.9959896,9.03534387 C16.2769618,9.03534387 15.6641306,8.58122354 15.4290247,7.94427834 C15.3261884,7.96596547 15.2196505,7.97739202 15.1104172,7.97739202 C14.2543582,7.97739202 13.5604151,7.27741242 13.5604151,6.41392725 C13.5604151,5.83522698 13.8721405,5.32998313 14.335488,5.05963839 C14.2400729,4.84047097 14.1871183,4.59870158 14.1871183,4.34453698 C14.1871183,3.35141334 14.9946432,2.54633455 15.9908062,2.54633455 C16.5756597,2.54633455 17.0953938,2.82390834 17.4249624,3.2540634" id="Fill-1-Copy" fill="#1AA2DD"></path>
                </g>
                <g id="Component---Left-Bar---Expanded-Copy-16" transform="translate(0.000000, 0.187958)" fill="#16325C" sketch:type="MSShapeGroup">
                    <rect id="BG" x="0" y="0" width="10.7320313" height="229.994584"></rect>
                </g>
                <path d="M83.9831805,35.4940824 L83.9831804,229.896503" id="Line-Copy-2" stroke="#E1E6EF" stroke-linecap="square" sketch:type="MSShapeGroup"></path>
                <path d="M11.2388748,58.5 L83.9337949,58.5" id="Line" stroke="#E1E6EF" stroke-linecap="square" sketch:type="MSShapeGroup"></path>
                <path d="M94.9926958,42 C92.7875908,42 91,43.787167 91,46.0072357 L91,54.9927643 C91,57.2058994 92.782164,59 94.9926958,59 L230.007304,59 C232.212409,59 234,57.212833 234,54.9927643 L234,46.0072357 C234,43.7941006 232.217836,42 230.007304,42 L94.9926958,42 Z" id="Rectangle-19-Copy-19" stroke="#E0E5EE" fill="#FFFFFF" sketch:type="MSShapeGroup"></path>
                <path d="M94.9926958,65 C92.7875908,65 91,66.788 91,69.004532 L91,218.995468 C91,221.20711 92.782164,223 94.9926958,223 L230.007304,223 C232.212409,223 234,221.212 234,218.995468 L234,69.004532 C234,66.7928901 232.217836,65 230.007304,65 L94.9926958,65 Z" id="Rectangle-19-Copy-22" stroke="#E0E5EE" fill="#FFFFFF" sketch:type="MSShapeGroup"></path>
                <path d="M11.2388748,82.5 L83.9337949,82.5" id="Line-Copy-19" stroke="#E1E6EF" stroke-linecap="square" sketch:type="MSShapeGroup"></path>
                <path d="M11.2388748,106.5 L83.9337949,106.5" id="Line-Copy-20" stroke="#E1E6EF" stroke-linecap="square" sketch:type="MSShapeGroup"></path>
                <path d="M11.2388748,130.5 L83.9337949,130.5" id="Line-Copy-21" stroke="#E1E6EF" stroke-linecap="square" sketch:type="MSShapeGroup"></path>
                <path d="M11.2388748,154.5 L83.9337949,154.5" id="Line-Copy-22" stroke="#E1E6EF" stroke-linecap="square" sketch:type="MSShapeGroup"></path>
                <path d="M11.2388748,178.5 L83.9337949,178.5" id="Line-Copy-23" stroke="#E1E6EF" stroke-linecap="square" sketch:type="MSShapeGroup"></path>
            </g>
        </g>
    </g>
</svg>

<svg width="241" height="231" xmlns="http://www.w3.org/2000/svg"><g fill="none" fill-rule="evenodd"><path stroke="#E1E6EF" fill="#FFF" d="M0 9.774h241v220.49H0z"/><g transform="translate(18 40)" fill="#E1E6EF"><rect x=".108" y=".982" width="57.225" height="1.081" rx="4"/><rect x=".108" y="6.027" width="21.892" height="1.081" rx="4"/><rect x=".108" y="8.91" width="46.644" height="1.081" rx="4"/><rect x=".108" y="11.793" width="51.569" height="1.081" rx="4"/></g><g transform="translate(18 64)" fill="#E1E6EF"><rect x=".108" y=".982" width="57.225" height="1.081" rx="4"/><rect x=".108" y="6.027" width="21.892" height="1.081" rx="4"/><rect x=".108" y="8.91" width="46.644" height="1.081" rx="4"/><rect x=".108" y="11.793" width="51.569" height="1.081" rx="4"/></g><g transform="translate(18 88)" fill="#E1E6EF"><rect x=".108" y=".982" width="57.225" height="1.081" rx="4"/><rect x=".108" y="6.027" width="21.892" height="1.081" rx="4"/><rect x=".108" y="8.91" width="46.644" height="1.081" rx="4"/><rect x=".108" y="11.793" width="51.569" height="1.081" rx="4"/></g><g transform="translate(18 112)" fill="#E1E6EF"><rect x=".108" y=".982" width="57.225" height="1.081" rx="4"/><rect x=".108" y="6.027" width="21.892" height="1.081" rx="4"/><rect x=".108" y="8.91" width="46.644" height="1.081" rx="4"/><rect x=".108" y="11.793" width="51.569" height="1.081" rx="4"/></g><g transform="translate(18 136)" fill="#E1E6EF"><rect x=".108" y=".982" width="57.225" height="1.081" rx="4"/><rect x=".108" y="6.027" width="21.892" height="1.081" rx="4"/><rect x=".108" y="8.91" width="46.644" height="1.081" rx="4"/><rect x=".108" y="11.793" width="51.569" height="1.081" rx="4"/></g><g transform="translate(18 160)" fill="#E1E6EF"><rect x=".108" y=".982" width="57.225" height="1.081" rx="4"/><rect x=".108" y="6.027" width="21.892" height="1.081" rx="4"/><rect x=".108" y="8.91" width="46.644" height="1.081" rx="4"/><rect x=".108" y="11.793" width="51.569" height="1.081" rx="4"/></g><path stroke="#E0E5EE" fill="#F7F9FB" d="M10.318 10.3H241V36H10.318z"/><path stroke="#E1E6EF" fill="#FFF" d="M0 0h241v11.09H0z"/><path d="M17.425 3.254c.3-.31.716-.505 1.178-.505.613 0 1.148.34 1.432.846.248-.11.522-.172.81-.172 1.106 0 2.002.903 2.002 2.016 0 1.115-.896 2.018-2.002 2.018-.135 0-.267-.014-.394-.04-.25.447-.727.75-1.276.75-.23 0-.447-.054-.64-.148-.254.597-.847 1.015-1.537 1.015-.72 0-1.332-.454-1.567-1.09-.104.02-.21.032-.32.032-.856 0-1.55-.7-1.55-1.563 0-.58.312-1.084.775-1.354-.095-.22-.148-.46-.148-.715 0-.994.808-1.8 1.804-1.8.587 0 1.106.28 1.436.71" fill="#1AA2DD"/><path d="M0 .188h10.732v229.995H0z" fill="#16325C"/><path d="M83.983 35.494v194.403M11.24 58.5h72.694" stroke="#E1E6EF" stroke-linecap="square"/><path d="M94.993 42C92.788 42 91 43.787 91 46.007v8.986C91 57.206 92.782 59 94.993 59h135.014c2.205 0 3.993-1.787 3.993-4.007v-8.986c0-2.213-1.782-4.007-3.993-4.007H94.993zm0 23C92.788 65 91 66.788 91 69.005v149.99c0 2.212 1.782 4.005 3.993 4.005h135.014c2.205 0 3.993-1.788 3.993-4.005V69.005c0-2.212-1.782-4.005-3.993-4.005H94.993z" stroke="#E0E5EE" fill="#FFF"/><path d="M11.24 82.5h72.694m-72.694 24h72.694m-72.694 24h72.694m-72.694 24h72.694m-72.694 24h72.694" stroke="#E1E6EF" stroke-linecap="square"/></g></svg>
